public/assets/img/material-icons/close_fullscreen.svg

<svg height="24" viewBox="0 0 24 24" width="24" xmlns="http://www.w3.org/2000/svg"><path d="m22 3.41-5.29 5.29 3.29 3.3h-8v-8l3.29 3.29 5.3-5.29zm-18.59 18.59 5.29-5.29 3.3 3.29v-8h-8l3.29 3.29-5.29 5.3z"/></svg>

<svg xmlns="http://www.w3.org/2000/svg" width="24" height="24" viewBox="0 0 24 24"><path d="M22 3.41 16.71 8.7 20 12h-8V4l3.29 3.29L20.59 2 22 3.41zM3.41 22l5.29-5.29L12 20v-8H4l3.29 3.29L2 20.59 3.41 22z"/></svg>
